!!!OTL: Die wiedergefundene Schwester (Suedeli - Ballade) Och riddaren han gangar sig till hafsjoestranden ned,
!!!ARE: Nordeuropa, Finnland (Schwedische Nationalitaet)
!!!YOR: 4, S. 33
!!    1934 gedruckt in Helsingfors
!!!SCT: Q2072M
!!!YEM: Copyright 1995, estate of Helmut Schaffrath.
**kern
*ICvox
*Ivox
*M2/4
*k[b-]
*d:
{8d
=1
8d
8e
8fn
8g
=2
8a
8a
8g
8a
=3
8.ccn
16b-
8a
8g#
=4
8a
8r}
{8a
8a
=5
2a
=6
2dd
=7
8.ccn
16b-
8.a
16g#
=8
4a
8r}
{8a
=9
8a
8ccn
8ccn
8b-
=10
4a
8a
8g
=11
8.fn
16e
8.fn
16g
=12
4a}
{8g
8fn
=13
2d
=14
2a
=15
8.fn
16e
8d
8c#
=16
4d
8r}
==
!!!AGN: Ballade, Entfuehrung, Adelige als Dienstmagd, Rueckkehr
!! Finno-schwedische Fassung der Ballade.
!!    Doppelter Refrain in Zeile zwei und vier.
!!!ONB: ESAC (Essen Associative Code) Database: BALLADE
!!!AMT: simple duple
!!!AIN: vox
!!!EED: Helmut Schaffrath
!!!EEV: 1.0
*-
